src/assets/icons/calculator.svg

<svg width="50" height="50" viewBox="0 0 50 50" fill="none" xmlns="http://www.w3.org/2000/svg">
<path d="M31.7871 50H18.2129C11.7512 50 6.49414 44.743 6.49414 38.2812V11.7188C6.49414 5.25703 11.7512 0 18.2129 0H31.7871C38.2488 0 43.5059 5.25703 43.5059 11.7188V38.2812C43.5059 44.743 38.2488 50 31.7871 50ZM18.2129 3.90625C13.9051 3.90625 10.4004 7.41094 10.4004 11.7188V38.2812C10.4004 42.5891 13.9051 46.0938 18.2129 46.0938H31.7871C36.0949 46.0938 39.5996 42.5891 39.5996 38.2812V11.7188C39.5996 7.41094 36.0949 3.90625 31.7871 3.90625H18.2129ZM35.6934 14.7461C35.6934 13.6674 34.8189 12.793 33.7402 12.793H16.2598C13.6684 12.8961 13.6703 16.597 16.2598 16.6992H33.7402C34.8189 16.6992 35.6934 15.8248 35.6934 14.7461ZM35.4004 40.2344V30.957C35.2973 28.3656 31.5964 28.3676 31.4941 30.957V40.2344C31.4941 41.3131 32.3686 42.1875 33.4473 42.1875C34.526 42.1875 35.4004 41.3131 35.4004 40.2344ZM16.6504 29.0039C15.3021 29.0039 14.209 30.097 14.209 31.4453C14.3376 34.6838 18.9637 34.6829 19.0918 31.4453C19.0918 30.097 17.9987 29.0039 16.6504 29.0039ZM25.0488 29.0039C23.7005 29.0039 22.6074 30.097 22.6074 31.4453C22.736 34.6838 27.3621 34.6829 27.4902 31.4453C27.4902 30.097 26.3972 29.0039 25.0488 29.0039ZM16.6504 37.3047C15.3021 37.3047 14.209 38.3978 14.209 39.7461C14.3376 42.9846 18.9637 42.9837 19.0918 39.7461C19.0918 38.3978 17.9987 37.3047 16.6504 37.3047ZM25.0488 37.3047C23.7005 37.3047 22.6074 38.3978 22.6074 39.7461C22.736 42.9846 27.3621 42.9837 27.4902 39.7461C27.4902 38.3978 26.3972 37.3047 25.0488 37.3047ZM18.9941 23.0469C18.9941 24.3952 17.9011 25.4883 16.5527 25.4883C13.3143 25.3597 13.3151 20.7336 16.5527 20.6055C17.9011 20.6055 18.9941 21.6985 18.9941 23.0469ZM25.0488 20.6055C23.7005 20.6055 22.6074 21.6985 22.6074 23.0469C22.736 26.2854 27.3621 26.2845 27.4902 23.0469C27.4902 21.6985 26.3972 20.6055 25.0488 20.6055ZM33.4473 20.6055C32.0989 20.6055 31.0059 21.6985 31.0059 23.0469C31.1345 26.2854 35.7605 26.2845 35.8887 23.0469C35.8887 21.6985 34.7956 20.6055 33.4473 20.6055Z" fill="#0061DF"/>
</svg>

<svg xmlns="http://www.w3.org/2000/svg" width="50" height="50" fill="none"><path fill="#0061DF" d="M31.787 50H18.213C11.75 50 6.494 44.743 6.494 38.281V11.72C6.494 5.257 11.751 0 18.213 0h13.574c6.462 0 11.719 5.257 11.719 11.719V38.28C43.506 44.743 38.249 50 31.787 50ZM18.213 3.906c-4.308 0-7.813 3.505-7.813 7.813V38.28c0 4.308 3.505 7.813 7.813 7.813h13.574c4.308 0 7.813-3.505 7.813-7.813V11.72c0-4.308-3.505-7.813-7.813-7.813H18.213Zm17.48 10.84a1.953 1.953 0 0 0-1.953-1.953H16.26c-2.592.103-2.59 3.804 0 3.906h17.48a1.953 1.953 0 0 0 1.953-1.953ZM35.4 40.234v-9.277c-.103-2.591-3.804-2.59-3.906 0v9.277a1.953 1.953 0 0 0 3.906 0Zm-18.75-11.23a2.441 2.441 0 0 0-2.441 2.441c.129 3.239 4.755 3.238 4.883 0a2.441 2.441 0 0 0-2.442-2.441Zm8.399 0a2.441 2.441 0 0 0-2.442 2.441c.129 3.239 4.755 3.238 4.883 0a2.441 2.441 0 0 0-2.441-2.441Zm-8.399 8.3a2.441 2.441 0 0 0-2.441 2.442c.129 3.239 4.755 3.238 4.883 0a2.441 2.441 0 0 0-2.442-2.441Zm8.399 0a2.441 2.441 0 0 0-2.442 2.442c.129 3.239 4.755 3.238 4.883 0a2.441 2.441 0 0 0-2.441-2.441Zm-6.055-14.257a2.441 2.441 0 0 1-2.441 2.441c-3.239-.128-3.238-4.754 0-4.883a2.441 2.441 0 0 1 2.441 2.442Zm6.055-2.442a2.441 2.441 0 0 0-2.442 2.442c.129 3.238 4.755 3.238 4.883 0a2.441 2.441 0 0 0-2.441-2.442Zm8.398 0a2.441 2.441 0 0 0-2.441 2.442c.128 3.238 4.755 3.238 4.883 0a2.441 2.441 0 0 0-2.442-2.442Z"/></svg>
